X: 24
T: Calliope House
C: Dave Richardson
Z: leprecawn
S: https://thesession.org/tunes/15#setting48844
R: jig
M: 6/8
L: 1/8
K: Dmaj
|:a3 faa|eaa faa|g2g fgf|efe edB|ABA A2F|
A2B d2e|1 f2f edB|e3 e2 A:|2 fgf edB|d3 d3||
|:dAA fAA|eAA fAA|B2e e2d|efe edB|ABA A2F|
A2B d2e|1 f2f fed|e3 e2A:|2 fgf edB|d3 d2f||

